img/decor/features-2-icon-cow.svg

<svg width="49" height="49" viewBox="0 0 49 49" fill="none" xmlns="http://www.w3.org/2000/svg">
<circle cx="24.5" cy="24.5" r="23.5" stroke="#323232" stroke-width="2"/>
<path d="M32.0618 19.7151C32.6055 18.602 32.9158 17.3957 32.9747 16.1659C33.0337 14.9362 32.8401 13.7073 32.4051 12.5503C32.3591 12.4093 32.2713 12.2845 32.1525 12.1914C32.0338 12.0983 31.8895 12.041 31.7374 12.0265C31.5853 12.012 31.4322 12.0411 31.297 12.11C31.1618 12.179 31.0505 12.2848 30.977 12.4144C29.9858 14.1282 27.8553 16.8914 26.2944 17.0198H26.2242C25.5066 16.8833 24.778 16.8075 24.0468 16.7933C23.313 16.8073 22.5819 16.8831 21.8616 17.0198H21.807C20.2462 16.899 18.0844 14.1358 17.0855 12.422C17.0158 12.2848 16.9048 12.1714 16.767 12.0966C16.6293 12.0218 16.4713 11.9892 16.314 12.0031C16.1567 12.017 16.0075 12.0768 15.8861 12.1745C15.7646 12.2722 15.6767 12.4032 15.6339 12.5503C15.1914 13.7032 14.9904 14.9297 15.0427 16.1585C15.0949 17.3873 15.3994 18.5937 15.9382 19.7075C14.5803 19.8736 12.8556 20.2964 12.2312 21.3609C12.0798 21.6132 12 21.8997 12 22.1914C12 22.4831 12.0798 22.7696 12.2312 23.0219C12.41 23.3303 12.6761 23.583 12.9982 23.7502C13.3203 23.9174 13.6851 23.9921 14.0496 23.9656C14.6963 23.9528 15.3355 23.8302 15.9382 23.6032C15.9329 24.0106 15.9669 24.4175 16.0397 24.8187C16.3881 26.1599 16.8447 27.4726 17.4054 28.7446C17.5537 29.0995 17.7176 29.4996 17.8035 29.7412C17.5471 30.3472 17.346 30.9737 17.2025 31.6136C17.1655 32.0657 17.2238 32.5203 17.3741 32.95C17.5244 33.3796 17.7634 33.7751 18.0766 34.1125C19.2082 35.3658 21.1983 36 24.0234 36C26.8485 36 28.8464 35.3658 29.9702 34.1125C30.285 33.7761 30.525 33.3807 30.6754 32.9508C30.8257 32.521 30.8832 32.0658 30.8443 31.6136C30.7035 30.9739 30.505 30.3474 30.2512 29.7412C30.337 29.4996 30.5009 29.107 30.6414 28.7446C31.208 27.4748 31.6648 26.1616 32.0071 24.8187C32.0859 24.4182 32.1225 24.0109 32.1164 23.6032C32.6994 23.8235 33.317 23.946 33.9426 23.9656C34.3081 23.9917 34.6738 23.9169 34.9971 23.7498C35.3204 23.5828 35.588 23.3303 35.7688 23.0219C35.9202 22.7696 36 22.4831 36 22.1914C36 21.8997 35.9202 21.6132 35.7688 21.3609C35.1522 20.3341 33.4275 19.8812 32.0618 19.7151ZM31.3204 14.702C31.6018 16.2808 31.327 17.9053 30.5399 19.3149C30.3443 19.0852 30.1359 18.8659 29.9156 18.6581C29.4746 18.2659 28.9713 17.9447 28.425 17.7068C29.5506 16.8621 30.5283 15.8475 31.3204 14.702ZM16.7187 14.702C17.5029 15.8555 18.4785 16.8758 19.6062 17.7219C19.0609 17.9532 18.5617 18.2752 18.1312 18.6732C17.9078 18.8803 17.6967 19.0996 17.4991 19.33C16.7097 17.9157 16.4348 16.2857 16.7187 14.702ZM13.6438 22.2971C13.5736 22.1763 13.597 22.1386 13.6438 22.1084C13.8233 21.8139 14.7286 21.3534 16.4611 21.1797C16.3753 21.3987 16.2972 21.6176 16.227 21.8441C15.2125 22.3499 13.8545 22.667 13.6438 22.2971ZM30.4697 24.562C30.1428 25.8014 29.7202 27.0153 29.2054 28.1935C29.0016 28.6551 28.8219 29.1263 28.6669 29.6053L28.6201 29.8394L28.7059 30.0508C28.9528 30.6264 29.1537 31.2196 29.3069 31.825C29.3151 32.0631 29.2745 32.3004 29.1875 32.5233C29.1004 32.7462 28.9686 32.9502 28.7996 33.1235C28.2377 33.7502 26.9578 34.49 24.0312 34.49C21.1046 34.49 19.8247 33.7351 19.2628 33.1235C18.9259 32.7708 18.744 32.3051 18.7556 31.825C18.9119 31.2195 19.1154 30.6264 19.3643 30.0508L19.4501 29.8394L19.3955 29.6053C19.249 29.1221 19.0718 28.6481 18.8648 28.1859C18.341 27.0018 17.9131 25.7801 17.5849 24.5318C17.4361 23.6617 17.509 22.7695 17.7973 21.9327C18.0856 21.096 18.5807 20.3399 19.2394 19.7302C20.4179 18.5826 23.0869 18.3259 24.0156 18.3184C24.9443 18.3108 27.5587 18.575 28.8074 19.7453C29.4702 20.3492 29.9687 21.102 30.2586 21.937C30.5486 22.772 30.6211 23.6633 30.4697 24.5318V24.562ZM34.3718 22.2971C34.1689 22.6595 32.811 22.3499 31.8432 21.8517C31.7808 21.6252 31.7028 21.4062 31.6169 21.1797C33.3338 21.3534 34.2313 21.8139 34.403 22.1084C34.442 22.1386 34.4577 22.1763 34.3874 22.2971H34.3718Z" fill="#323232"/>
</svg>

<svg width="49" height="49" fill="none" xmlns="http://www.w3.org/2000/svg"><circle cx="24.5" cy="24.5" r="23.5" stroke="#323232" stroke-width="2"/><path d="M32.06 19.72a9.07 9.07 0 00.35-7.17.75.75 0 00-.26-.36.8.8 0 00-1.17.22c-1 1.72-3.12 4.48-4.69 4.61h-.07a13 13 0 00-2.17-.23c-.74.02-1.47.1-2.19.23h-.05c-1.56-.12-3.73-2.88-4.72-4.6a.77.77 0 00-.32-.32.8.8 0 00-.88.07c-.13.1-.21.23-.26.38a9 9 0 00.3 7.16c-1.35.16-3.07.59-3.7 1.65a1.61 1.61 0 000 1.66 1.97 1.97 0 001.82.94 5.68 5.68 0 001.89-.36c0 .41.03.82.1 1.22.35 1.34.8 2.65 1.37 3.92l.4 1c-.26.6-.46 1.23-.6 1.87a3.24 3.24 0 00.87 2.5C19.2 35.37 21.2 36 24.02 36c2.83 0 4.83-.63 5.95-1.89a3.3 3.3 0 00.87-2.5c-.14-.64-.34-1.26-.59-1.87l.4-1A24.46 24.46 0 0032 24.82c.08-.4.11-.8.1-1.22.59.22 1.2.35 1.83.37.37.02.73-.05 1.06-.22.32-.17.59-.42.77-.73a1.61 1.61 0 000-1.66c-.62-1.03-2.34-1.48-3.7-1.64zm-.74-5.02c.28 1.58 0 3.2-.78 4.61a5.62 5.62 0 00-2.11-1.6c1.12-.85 2.1-1.86 2.89-3zm-14.6 0a12.72 12.72 0 002.89 3.02c-.55.23-1.05.56-1.48.95-.22.21-.43.43-.63.66a6.96 6.96 0 01-.78-4.63zm-3.08 7.6c-.07-.12-.04-.16 0-.2.18-.29 1.09-.75 2.82-.92l-.23.66c-1.02.51-2.38.83-2.59.46zm16.83 2.26a24.98 24.98 0 01-1.26 3.63c-.2.47-.39.94-.54 1.42l-.05.23.09.21c.24.58.44 1.17.6 1.77a1.75 1.75 0 01-.51 1.3c-.56.63-1.84 1.37-4.77 1.37-2.93 0-4.2-.75-4.77-1.37a1.82 1.82 0 01-.5-1.3c.15-.6.36-1.2.6-1.77l.09-.21-.05-.23c-.15-.49-.33-.96-.54-1.42-.52-1.19-.95-2.41-1.28-3.66a5.25 5.25 0 011.66-4.8c1.18-1.15 3.85-1.4 4.78-1.41.92 0 3.54.25 4.79 1.43a5.33 5.33 0 011.66 4.78v.03zm3.9-2.26c-.2.36-1.56.05-2.53-.45a7.53 7.53 0 00-.22-.67c1.71.17 2.61.63 2.78.93.04.03.06.07-.01.19h-.02z" fill="#323232"/></svg>
